dist/img/sprites/company-insurance-5.svg

<svg width="379" height="100" viewBox="0 0 379 100" xmlns="http://www.w3.org/2000/svg">
<path d="M253.14 22.2834C255.405 21.9677 257.789 22.2947 259.848 23.3067C260.938 23.8425 261.973 24.5639 262.771 25.4885L262.995 25.7513L262.768 26.0117C261.939 26.9595 261.124 27.9249 260.31 28.8866L260.029 29.2186L259.723 28.9105C258.943 28.1293 257.995 27.3526 256.907 27.0765C254.787 26.5369 252.181 26.7394 250.608 28.423C249.872 29.2105 249.621 30.4193 249.983 31.4331C250.234 32.1344 250.88 32.6312 251.512 32.9753C253.063 33.823 254.889 34.0708 256.567 34.5771C258.494 35.1589 260.419 35.8627 262.017 37.1205C263.249 38.0904 264.208 39.4342 264.567 40.9714C265.156 43.4913 264.509 46.2669 262.844 48.2525C261.534 49.8148 259.7 50.8854 257.75 51.4323C254.643 52.3018 251.198 51.8001 248.437 50.145C247.372 49.5067 246.327 48.6468 245.531 47.6914L245.313 47.4288L245.538 47.171C246.415 46.1729 247.275 45.1543 248.133 44.1387L248.481 43.7269L248.836 44.2755C250.751 47.0264 255.178 48.0371 258.092 46.3756C259.217 45.7358 260.111 44.5522 260.153 43.2068C260.235 42.2463 259.823 41.2608 259.063 40.6651C257.803 39.6747 256.126 39.3541 254.651 38.8761C252.185 38.3449 249.717 37.5447 247.747 35.9161C246.392 34.7973 245.441 33.1815 245.256 31.4306C245.022 29.5507 245.514 27.5885 246.634 26.0652C248.13 23.9419 250.597 22.6388 253.14 22.2834ZM370.252 45.585C365.877 45.5393 361.502 45.5881 357.127 45.5614C356.265 47.4902 355.445 49.4519 354.613 51.393L354.511 51.635H349.531L349.772 51.0771C353.699 41.9728 357.629 32.8702 361.559 23.7784C361.897 22.9344 362.76 22.362 363.655 22.3903C364.581 22.3545 365.455 22.9721 365.784 23.8331C369.714 32.9174 373.649 41.9932 377.577 51.0771L377.818 51.635H372.852L372.748 51.3945C371.913 49.4644 371.057 47.5293 370.252 45.585ZM342.021 42.8216V22.3903H346.638V49.2757C346.702 50.3179 345.982 51.3584 344.952 51.5785C344.168 51.7797 343.276 51.5392 342.758 50.9012C337.396 44.2993 332.029 37.702 326.661 31.1036L326.66 51.7013H322.022V51.3018C322.022 42.49 322.02 33.6796 322.024 24.8803C321.944 23.5708 323.162 22.3589 324.476 22.4595C325.188 22.4828 325.822 22.8759 326.26 23.4186C331.508 29.8897 336.764 36.3564 342.021 42.8216ZM301.959 46.943C306.906 46.9527 311.852 46.9527 316.8 46.9666L317.198 46.9684V51.577H316.798C311.269 51.5817 305.739 51.5817 300.21 51.5785C299.668 51.5785 299.168 51.6288 298.67 51.3837C297.822 51.0205 297.276 50.1246 297.32 49.2175C297.322 40.3837 297.317 31.5545 297.32 22.7205V22.3212H301.959V46.943ZM286.925 45.585C282.551 45.5393 278.174 45.5881 273.8 45.5614C272.938 47.4902 272.119 49.4519 271.287 51.393L271.185 51.635H266.203L266.444 51.0771C270.373 41.9743 274.302 32.8702 278.233 23.7784C278.571 22.9344 279.426 22.362 280.323 22.3903C281.262 22.3545 282.128 22.9721 282.458 23.8331C286.388 32.9174 290.323 41.9932 294.251 51.0771L294.492 51.635H289.526L289.422 51.3945C288.587 49.4644 287.728 47.5293 286.925 45.585ZM241.891 51.6367H236.217L230.753 43.1957C228.75 43.1973 226.201 43.1957 224.199 43.1973C224.19 45.8773 224.202 48.5574 224.2 51.2375V51.6367H219.56V51.2375C219.563 42.3769 219.566 33.5161 219.565 24.6558C219.565 23.4306 220.653 22.3671 221.868 22.3935C224.61 22.3841 227.351 22.3891 230.093 22.3903C232.786 22.3922 235.459 23.4105 237.474 25.1947C240.733 28.084 241.819 33.1042 240.029 37.0765C239.137 39.0554 237.575 40.6963 235.693 41.7591L241.891 51.6367ZM198.18 27.0243C198.177 29.4576 198.179 31.8891 198.179 34.3224C201.699 34.3256 205.22 34.3193 208.74 34.3256H209.14L209.143 38.9281L208.755 38.9392C208.693 38.9407 208.632 38.9392 208.582 38.9374C205.114 38.936 201.645 38.936 198.179 38.9374C198.177 41.6048 198.177 44.2741 198.179 46.9416C203.398 46.943 208.619 46.9448 213.838 46.9416H214.238V51.5785H213.838C207.834 51.5802 201.83 51.5802 195.835 51.577C194.567 51.6085 193.473 50.4673 193.543 49.2175C193.541 41.0343 193.536 32.8576 193.544 24.6822C193.519 23.4482 194.625 22.3966 195.844 22.3954C201.842 22.3891 207.841 22.3935 213.838 22.3903H214.238V27.0224H213.838C208.619 27.0256 203.4 27.0212 198.18 27.0243ZM176.807 43.5102C179.81 36.5281 182.82 29.5488 185.824 22.5664L185.928 22.3243H190.908L190.669 22.8809C186.769 31.9771 182.835 41.0596 178.934 50.145C178.529 51.1589 177.362 51.7829 176.303 51.5235C175.528 51.3633 174.922 50.7629 174.615 50.0491C170.737 40.9857 166.821 31.9394 162.932 22.8809L162.693 22.3243H167.678L167.782 22.5664C170.785 29.5507 173.805 36.5262 176.807 43.5102ZM159.934 22.7237C159.944 32.2275 159.937 41.7308 159.934 51.2343V51.6335H155.301V51.2343C155.293 41.7308 155.297 32.2275 155.299 22.7237V22.3243H159.934V22.7237ZM144.027 42.7541V22.3243H148.646V49.2082C148.708 50.2503 147.988 51.2908 146.959 51.5109C146.174 51.7122 145.282 51.4716 144.765 50.8336C139.402 44.2315 134.035 37.6344 128.668 31.0356V51.6335H124.03V51.2343C124.028 42.4224 124.028 33.6117 124.031 24.8124C123.949 23.5048 125.169 22.2916 126.482 22.3922C127.195 22.4155 127.827 22.8067 128.268 23.3507C133.517 29.8224 138.771 36.2891 144.027 42.7541ZM96.7482 22.7237C96.7526 28.1627 96.7431 33.601 96.7526 39.0396C96.7557 40.6257 97.292 42.1851 98.1971 43.4835C99.724 45.6715 102.293 47.1129 104.966 47.2212C106.468 47.2826 107.993 46.9495 109.311 46.2215C111.407 45.0632 112.938 42.952 113.409 40.6068C113.61 39.604 113.574 38.5635 113.574 37.5464V22.3243H118.214V38.7505C118.214 40.0614 118.055 41.377 117.684 42.6361C116.687 46.0078 114.239 48.8827 111.106 50.4688C108.365 51.8554 105.128 52.1996 102.152 51.4591C99.0493 50.6886 96.2541 48.7758 94.42 46.1603C92.9962 44.1293 92.1686 41.6962 92.1006 39.2047V22.3243H96.7482V22.7237ZM358.99 40.9542C362.1 40.9557 365.211 40.9542 368.323 40.9542C366.78 37.2838 365.235 33.6136 363.687 29.9451C362.111 33.6105 360.555 37.2838 358.99 40.9542ZM275.664 40.9542C278.774 40.9557 281.885 40.9542 284.997 40.9542C283.452 37.2838 281.909 33.6136 280.359 29.9451C278.784 33.6105 277.229 37.2838 275.664 40.9542ZM224.2 27.0243C224.198 30.8771 224.196 34.7281 224.202 38.5807C225.915 38.579 227.631 38.579 229.352 38.579C230.31 38.5979 231.296 38.5557 232.217 38.2395C234.01 37.6627 235.552 36.2149 236.052 34.3759C236.497 32.7413 236.145 30.9256 235.141 29.5532C234.043 27.9941 232.156 27.0444 230.252 27.0306C228.236 27.0168 226.217 27.0256 224.2 27.0243Z" />
<path fill-rule="evenodd" clip-rule="evenodd" d="M39.8955 0.267075V19.44C39.9001 19.5306 39.9068 19.6212 39.9102 19.7124L39.9218 19.9778L39.9213 45.5142C39.9213 57.7644 30.5917 68.2776 18.9326 70.6536C18.7143 70.7166 18.4954 70.7778 18.2754 70.8361C22.3179 72.3519 26.5974 73.125 30.9356 73.125C45.1628 73.125 58.0496 64.7836 63.8829 51.8215C64.9139 49.53 65.7 47.1313 66.23 44.6753C66.7694 42.1742 67.0407 39.6227 67.0407 37.0646L67.0413 20.5444C67.0419 10.5759 58.9728 0.267075 48.5091 0.267075H39.8955Z" />
<path fill-rule="evenodd" clip-rule="evenodd" d="M27.537 45.8484L27.538 19.8533C27.1112 9.92627 19.6758 0.500477 9.28971 0.269032H0.419922V44.179C0.419922 62.0134 24.2137 64.2392 27.3934 46.8218C27.4525 46.4992 27.4999 46.1742 27.537 45.8484Z" />
<path d="M160.289 86.4499H155.196L153.739 90.4681H151.191L156.509 76.5833H158.855L164.508 90.4681H161.811L160.289 86.4499ZM263.039 99.3975V97.1773H177.51V99.3975H263.039ZM263.039 67.5608V69.7802H177.51V67.5608H263.039ZM219.015 84.4582L222.205 90.5104H219.391L216.479 84.8099C216.174 84.8193 215.872 84.8212 215.573 84.8212H213.168V90.4681H210.76V76.5833H216.945C217.291 76.5833 217.637 76.5894 217.983 76.6039C218.308 76.6181 218.635 76.6525 218.953 76.7213C219.255 76.7869 219.552 76.8788 219.836 77.0019C220.138 77.1331 220.414 77.3136 220.664 77.5273C221.112 77.9097 221.445 78.3782 221.666 78.9245C221.883 79.4611 221.995 80.0242 221.995 80.603C221.995 81.0747 221.927 81.5825 221.771 82.0282C221.624 82.4483 221.408 82.8325 221.12 83.1725C220.832 83.5128 220.485 83.7875 220.096 84.0051C219.752 84.198 219.39 84.3454 219.015 84.4582ZM179.917 78.8034V82.251H186.146V84.4712H179.917V90.4681H177.51V76.5833H187.094V78.8034H179.917ZM197.763 86.4499H192.67L191.212 90.4681H188.665L193.982 76.5833H196.328L201.981 90.4681H199.285L197.763 86.4499ZM206.77 90.4681H204.362V76.5833H206.77V90.4681ZM228.012 78.8034V82.251H234.241V84.4712H228.012V90.4681H225.605V76.5833H235.19V78.8034H228.012ZM245.204 86.4499H240.111L238.653 90.4681H236.105L241.423 76.5833H243.769L249.422 90.4681H246.726L245.204 86.4499ZM256.583 85.0959L252.837 90.4681H249.859L255.177 83.1592L250.35 76.5833H253.31L256.571 81.2228L259.839 76.5833H262.822L257.974 83.1592L263.313 90.4681H260.354L256.583 85.0959ZM287.88 81.256H285.419L285.399 80.9509C285.375 80.599 285.286 80.2632 285.113 79.9554C284.943 79.6527 284.715 79.3997 284.438 79.1911C284.135 78.9621 283.792 78.8017 283.428 78.6938C283.014 78.5705 282.586 78.515 282.153 78.515C281.579 78.515 281.008 78.6064 280.48 78.8378C279.987 79.0535 279.568 79.3663 279.22 79.7765C278.837 80.2289 278.579 80.7671 278.406 81.3307C278.19 82.0346 278.112 82.7846 278.112 83.5187C278.112 84.25 278.189 84.9989 278.406 85.6993C278.581 86.2629 278.836 86.8039 279.213 87.2616C279.552 87.6738 279.965 87.991 280.454 88.2074C280.979 88.4406 281.54 88.5366 282.112 88.5366C282.936 88.5366 283.775 88.3717 284.437 87.8539C285.059 87.3675 285.334 86.6852 285.399 85.9099L285.424 85.6104H287.876L287.845 85.9658C287.784 86.6643 287.613 87.3456 287.282 87.9664C286.975 88.542 286.569 89.0429 286.061 89.4517C285.538 89.8711 284.939 90.1741 284.302 90.3772C283.603 90.6 282.875 90.6949 282.143 90.6949C281.219 90.6949 280.308 90.5455 279.455 90.1848C278.665 89.8507 277.97 89.3692 277.397 88.7319C276.803 88.0716 276.378 87.2967 276.093 86.4584C275.77 85.5128 275.642 84.5146 275.642 83.5187C275.642 82.5234 275.774 81.5258 276.1 80.5824C276.388 79.7453 276.813 78.97 277.407 78.3096C277.98 77.6721 278.671 77.1884 279.46 76.85C280.312 76.4855 281.22 76.3361 282.143 76.3361C282.856 76.3361 283.562 76.4344 284.241 76.6545C284.879 76.8609 285.473 77.1633 286.002 77.5768C286.514 77.977 286.934 78.4585 287.259 79.0206C287.594 79.5994 287.78 80.2328 287.845 80.8975L287.88 81.256ZM297.156 76.3567C298.071 76.3567 298.969 76.5161 299.813 76.8736C300.619 77.2144 301.33 77.7021 301.928 78.3384C302.544 78.9941 302.996 79.7648 303.31 80.6055C303.658 81.5383 303.804 82.5256 303.804 83.5187C303.804 84.5038 303.662 85.4814 303.32 86.4076C303.009 87.2505 302.561 88.0241 301.947 88.6843C301.349 89.3272 300.639 89.8239 299.832 90.1706C298.982 90.5359 298.079 90.6949 297.156 90.6949C296.232 90.6949 295.321 90.5389 294.467 90.178C293.659 89.836 292.95 89.3471 292.352 88.7054C291.736 88.0455 291.287 87.2724 290.974 86.4282C290.629 85.4954 290.487 84.511 290.487 83.5187C290.487 82.521 290.633 81.5297 290.981 80.5922C291.295 79.7475 291.752 78.9741 292.374 78.3202C292.976 77.688 293.683 77.2031 294.49 76.8663C295.337 76.5117 296.239 76.3567 297.156 76.3567ZM317.802 80.8907L314.579 90.4681H312.538L309.299 80.8821V90.4681H306.995V76.5833H310.196L313.551 86.8832L316.926 76.5833H320.127V90.4681H317.802V80.8907ZM326.319 85.1924V90.4681H323.912V76.5833H329.189C329.855 76.5833 330.518 76.6402 331.173 76.7606C331.791 76.8741 332.382 77.0832 332.917 77.4161C333.438 77.7416 333.852 78.1789 334.153 78.7155C334.501 79.3365 334.61 80.0677 334.61 80.7711C334.61 82.0552 334.246 83.2455 333.229 84.0803C332.156 84.963 330.662 85.1924 329.313 85.1924H326.319ZM345.213 86.4499H340.12L338.663 90.4681H336.115L341.433 76.5833H343.778L349.432 90.4681H346.735L345.213 86.4499ZM353.89 80.7762V90.4681H351.586V76.5833H353.89L360.331 86.2791V76.5833H362.656V90.4681H360.352L353.89 80.7762ZM372.653 84.6264V90.4681H370.246V84.6267L364.735 76.5833H367.678L371.445 82.3854L375.201 76.5833H378.142L372.653 84.6264ZM159.522 84.3943L157.676 79.5404L155.918 84.3943H159.522ZM196.995 84.3943L195.15 79.5404L193.392 84.3943H196.995ZM213.168 82.5807H216.77C217.43 82.5807 218.39 82.518 218.951 82.1277C219.721 81.5921 219.736 79.9777 219.102 79.3194C218.644 78.842 217.876 78.7007 217.031 78.7007H213.168V82.5807ZM244.436 84.3943L242.59 79.5404L240.832 84.3943H244.436ZM297.142 88.5366C297.727 88.5366 298.296 88.4319 298.833 88.1966C299.346 87.9721 299.788 87.6478 300.158 87.2261C300.559 86.7697 300.841 86.2322 301.036 85.66C301.27 84.976 301.356 84.2429 301.356 83.5224C301.356 82.7972 301.27 82.0577 301.03 81.3697C300.832 80.8012 300.552 80.2632 300.151 79.809C299.787 79.3943 299.353 79.0766 298.845 78.8597C298.316 78.6334 297.754 78.5354 297.18 78.5354C296.595 78.5354 296.025 78.6406 295.487 78.8702C294.972 79.0896 294.529 79.41 294.159 79.8296C293.76 80.2834 293.48 80.8219 293.281 81.3906C293.043 82.0731 292.956 82.8023 292.956 83.5224C292.956 84.2437 293.041 84.9755 293.272 85.6615C293.464 86.2324 293.744 86.7714 294.143 87.2261C294.511 87.6458 294.95 87.9711 295.46 88.1973C295.993 88.4339 296.56 88.5366 297.142 88.5366ZM326.319 82.9517H329.367C330.045 82.9517 331.015 82.8745 331.553 82.4097C332.024 82.0033 332.161 81.4056 332.161 80.8055C332.161 80.4674 332.117 80.079 331.945 79.781C331.802 79.5353 331.614 79.3348 331.368 79.1916C331.093 79.0312 330.782 78.9378 330.468 78.8889C330.084 78.829 329.694 78.8034 329.306 78.8034H326.319V82.9517ZM344.446 84.3943L342.6 79.5404L340.842 84.3943H344.446Z" />
</svg>

<svg width="379" height="100" viewBox="0 0 379 100" xmlns="http://www.w3.org/2000/svg"><path d="M253.14 22.283c2.265-.315 4.649.012 6.708 1.024 1.09.536 2.125 1.257 2.923 2.181l.224.263-.227.26c-.829.948-1.644 1.914-2.458 2.876l-.281.332-.306-.309c-.78-.78-1.728-1.557-2.816-1.834-2.12-.54-4.726-.337-6.299 1.347a3.02 3.02 0 00-.625 3.01c.251.701.897 1.198 1.529 1.542 1.551.848 3.377 1.096 5.055 1.602 1.927.582 3.852 1.286 5.45 2.544 1.232.97 2.191 2.313 2.55 3.85.589 2.52-.058 5.296-1.723 7.282-1.31 1.562-3.144 2.632-5.094 3.18-3.107.869-6.552.367-9.313-1.288-1.065-.638-2.11-1.498-2.906-2.454l-.218-.262.225-.258c.877-.998 1.737-2.017 2.595-3.032l.348-.412.355.549c1.915 2.75 6.342 3.761 9.256 2.1 1.125-.64 2.019-1.824 2.061-3.17.082-.96-.33-1.945-1.09-2.54-1.26-.991-2.937-1.312-4.412-1.79-2.466-.531-4.934-1.331-6.904-2.96-1.355-1.119-2.306-2.734-2.491-4.485-.234-1.88.258-3.843 1.378-5.366 1.496-2.123 3.963-3.426 6.506-3.782zm117.112 23.302c-4.375-.046-8.75.003-13.125-.024-.862 1.93-1.682 3.89-2.514 5.832l-.102.242h-4.98l.241-.558c3.927-9.104 7.857-18.207 11.787-27.299.338-.844 1.201-1.416 2.096-1.388.926-.035 1.8.582 2.129 1.443 3.93 9.084 7.865 18.16 11.793 27.244l.241.558h-4.966l-.104-.24c-.835-1.93-1.691-3.866-2.496-5.81zm-28.231-2.763V22.39h4.617v26.886c.064 1.042-.656 2.082-1.686 2.302-.784.202-1.676-.039-2.194-.677a30229.47 30229.47 0 00-16.097-19.797L326.66 51.7h-4.638v-.4c0-8.811-.002-17.621.002-26.42-.08-1.31 1.138-2.522 2.452-2.422.712.024 1.346.417 1.784.96 5.248 6.47 10.504 12.937 15.761 19.403zm-40.062 4.121c4.947.01 9.893.01 14.841.024l.398.001v4.609h-.4c-5.529.005-11.059.005-16.588.002-.542 0-1.042.05-1.54-.195a2.275 2.275 0 01-1.35-2.166c.002-8.834-.003-17.664 0-26.498v-.399h4.639v24.622zm-15.034-1.358c-4.374-.046-8.751.003-13.125-.024-.862 1.93-1.681 3.89-2.513 5.832l-.102.242h-4.982l.241-.558c3.929-9.103 7.858-18.207 11.789-27.299.338-.844 1.193-1.416 2.09-1.388.939-.035 1.805.582 2.135 1.443 3.93 9.084 7.865 18.16 11.793 27.244l.241.558h-4.966l-.104-.24c-.835-1.93-1.694-3.866-2.497-5.81zm-45.034 6.052h-5.674l-5.464-8.441-6.554.001c-.009 2.68.003 5.36.001 8.04v.4h-4.64v-.4c.003-8.86.006-17.72.005-26.581 0-1.225 1.088-2.289 2.303-2.262 2.742-.01 5.483-.005 8.225-.004a11.255 11.255 0 017.381 2.805c3.259 2.889 4.345 7.91 2.555 11.882-.892 1.978-2.454 3.62-4.336 4.682l6.198 9.878zM198.18 27.024c-.003 2.434-.001 4.865-.001 7.298 3.52.004 7.041-.003 10.561.004h.4l.003 4.602-.388.011c-.062.002-.123 0-.173-.002h-10.403c-.002 2.668-.002 5.337 0 8.005 5.219.001 10.44.003 15.659 0h.4v4.636h-.4c-6.004.002-12.008.002-18.003-.001-1.268.032-2.362-1.11-2.292-2.36-.002-8.183-.007-16.36.001-24.535-.025-1.234 1.081-2.285 2.3-2.287 5.998-.006 11.997-.002 17.994-.005h.4v4.632h-.4c-5.219.004-10.438 0-15.658.002zM176.807 43.51c3.003-6.982 6.013-13.961 9.017-20.944l.104-.242h4.98l-.239.557c-3.9 9.096-7.834 18.179-11.735 27.264-.405 1.014-1.572 1.638-2.631 1.378-.775-.16-1.381-.76-1.688-1.474-3.878-9.063-7.794-18.11-11.683-27.168l-.239-.557h4.985l.104.242c3.003 6.985 6.023 13.96 9.025 20.944zm-16.873-20.786c.01 9.503.003 19.007 0 28.51v.4h-4.633v-.4c-.008-9.503-.004-19.007-.002-28.51v-.4h4.635v.4zm-15.907 20.03v-20.43h4.619v26.884c.062 1.042-.658 2.083-1.687 2.303-.785.201-1.677-.04-2.194-.677-5.363-6.603-10.73-13.2-16.097-19.798v20.597h-4.638v-.399c-.002-8.812-.002-17.622.001-26.422-.082-1.307 1.138-2.52 2.451-2.42.713.024 1.345.415 1.786.959 5.249 6.471 10.503 12.938 15.759 19.403zm-47.279-20.03c.005 5.439-.005 10.877.005 16.316.003 1.586.539 3.145 1.444 4.444 1.527 2.188 4.096 3.629 6.769 3.737 1.502.062 3.027-.271 4.345-1 2.096-1.158 3.627-3.269 4.098-5.614.201-1.003.165-2.044.165-3.06V22.323h4.64V38.75c0 1.31-.159 2.626-.53 3.885-.997 3.372-3.445 6.247-6.578 7.833-2.741 1.386-5.978 1.73-8.954.99a13.5 13.5 0 01-7.732-5.299 12.784 12.784 0 01-2.32-6.955v-16.88h4.648v.399zm262.242 18.23c3.11.002 6.221 0 9.333 0a8898.04 8898.04 0 00-4.636-11.009c-1.576 3.666-3.132 7.339-4.697 11.01zm-83.326 0c3.11.002 6.221 0 9.333 0-1.545-3.67-3.088-7.34-4.638-11.009-1.575 3.666-3.13 7.339-4.695 11.01zM224.2 27.024c-.002 3.853-.004 7.704.002 11.557 1.713-.002 3.429-.002 5.15-.002.958.019 1.944-.023 2.865-.34 1.793-.576 3.335-2.024 3.835-3.863.445-1.635.093-3.45-.911-4.823-1.098-1.559-2.985-2.509-4.889-2.522-2.016-.014-4.035-.005-6.052-.007z"/><path fill-rule="evenodd" clip-rule="evenodd" d="M39.895.267V19.44c.005.09.012.181.015.272l.012.266v25.536c0 12.25-9.33 22.764-20.99 25.14-.218.063-.437.124-.657.182a36.018 36.018 0 0012.66 2.289 36.123 36.123 0 0032.948-21.303 35.863 35.863 0 002.347-7.147c.54-2.5.81-5.052.81-7.61l.001-16.52c0-9.97-8.068-20.278-18.532-20.278h-8.614z"/><path fill-rule="evenodd" clip-rule="evenodd" d="M27.537 45.848l.001-25.995C27.111 9.926 19.676.5 9.29.27H.42v43.91c0 17.834 23.794 20.06 26.973 2.643.06-.323.107-.648.144-.974z"/><path d="M160.289 86.45h-5.093l-1.457 4.018h-2.548l5.318-13.885h2.346l5.653 13.885h-2.697l-1.522-4.018zm102.75 12.947v-2.22H177.51v2.22h85.529zm0-31.836v2.22H177.51v-2.22h85.529zm-44.024 16.897l3.19 6.052h-2.814l-2.912-5.7c-.305.01-.607.011-.906.011h-2.405v5.647h-2.408V76.583h6.185c.346 0 .692.006 1.038.02.325.015.652.05.97.118.302.066.599.158.883.28a3.572 3.572 0 011.83 1.923c.217.537.329 1.1.329 1.679 0 .472-.068.98-.224 1.425-.147.42-.363.804-.651 1.144-.288.34-.635.615-1.024.833a5.35 5.35 0 01-1.081.453zm-39.098-5.655v3.448h6.229v2.22h-6.229v5.997h-2.407V76.583h9.584v2.22h-7.177zm17.846 7.647h-5.093l-1.458 4.018h-2.547l5.317-13.885h2.346l5.653 13.885h-2.696l-1.522-4.018zm9.007 4.018h-2.408V76.583h2.408v13.885zm21.242-11.665v3.448h6.229v2.22h-6.229v5.997h-2.407V76.583h9.585v2.22h-7.178zm17.192 7.647h-5.093l-1.458 4.018h-2.548l5.318-13.885h2.346l5.653 13.885h-2.696l-1.522-4.018zm11.379-1.354l-3.746 5.372h-2.978l5.318-7.309-4.827-6.576h2.96l3.261 4.64 3.268-4.64h2.983l-4.848 6.576 5.339 7.31h-2.959l-3.771-5.373zm31.297-3.84h-2.461l-.02-.305a2.33 2.33 0 00-.286-.996 2.46 2.46 0 00-.675-.764 3.141 3.141 0 00-1.01-.497 4.453 4.453 0 00-1.275-.179c-.574 0-1.145.091-1.673.323a3.438 3.438 0 00-1.26.939c-.383.452-.641.99-.814 1.554-.216.704-.294 1.454-.294 2.188 0 .731.077 1.48.294 2.18.175.564.43 1.105.807 1.563.339.412.752.729 1.241.945.525.234 1.086.33 1.658.33.824 0 1.663-.165 2.325-.683.622-.486.897-1.169.962-1.944l.025-.3h2.452l-.031.356c-.061.698-.232 1.38-.563 2a4.767 4.767 0 01-1.221 1.486 5.432 5.432 0 01-1.759.925 7.09 7.09 0 01-2.159.318c-.924 0-1.835-.15-2.688-.51a5.744 5.744 0 01-2.058-1.453 6.488 6.488 0 01-1.304-2.274c-.323-.945-.451-1.943-.451-2.94 0-.995.132-1.992.458-2.936.288-.837.713-1.612 1.307-2.272a5.802 5.802 0 012.053-1.46c.852-.364 1.76-.514 2.683-.514.713 0 1.419.098 2.098.319a5.672 5.672 0 011.761.922c.512.4.932.882 1.257 1.444.335.578.521 1.212.586 1.876l.035.359zm9.276-4.9c.915 0 1.813.16 2.657.518.806.34 1.517.828 2.115 1.464a6.702 6.702 0 011.382 2.268c.348.932.494 1.92.494 2.913 0 .985-.142 1.962-.484 2.889a6.726 6.726 0 01-1.373 2.276 6.212 6.212 0 01-2.115 1.487c-.85.365-1.753.524-2.676.524-.924 0-1.835-.156-2.689-.517a6.118 6.118 0 01-2.115-1.473 6.725 6.725 0 01-1.378-2.277c-.345-.933-.487-1.917-.487-2.91 0-.997.146-1.988.494-2.926a6.602 6.602 0 011.393-2.272 6.178 6.178 0 012.116-1.454 6.874 6.874 0 012.666-.51zm20.646 4.535l-3.223 9.577h-2.041l-3.239-9.586v9.586h-2.304V76.583h3.201l3.355 10.3 3.375-10.3h3.201v13.885h-2.325v-9.577zm8.517 4.301v5.276h-2.407V76.583h5.277c.666 0 1.329.057 1.984.178a4.977 4.977 0 011.744.655c.521.326.935.763 1.236 1.3.348.62.457 1.352.457 2.055 0 1.284-.364 2.475-1.381 3.31-1.073.882-2.567 1.111-3.916 1.111h-2.994zm18.894 1.258h-5.093l-1.457 4.018h-2.548l5.318-13.885h2.345l5.654 13.885h-2.697l-1.522-4.018zm8.677-5.674v9.692h-2.304V76.583h2.304l6.441 9.696v-9.696h2.325v13.885h-2.304l-6.462-9.692zm18.763 3.85v5.842h-2.407v-5.841l-5.511-8.044h2.943l3.767 5.802 3.756-5.802h2.941l-5.489 8.043zm-213.131-.232l-1.846-4.854-1.758 4.854h3.604zm37.473 0l-1.845-4.854-1.758 4.854h3.603zm16.173-1.813h3.602c.66 0 1.62-.063 2.181-.453.77-.536.785-2.15.151-2.809-.458-.477-1.226-.618-2.071-.618h-3.863v3.88zm31.268 1.813l-1.846-4.854-1.758 4.854h3.604zm52.706 4.143a4.18 4.18 0 001.691-.34 3.737 3.737 0 001.325-.97c.401-.457.683-.995.878-1.567.234-.684.32-1.417.32-2.138 0-.725-.086-1.464-.326-2.152-.198-.569-.478-1.107-.879-1.561a3.597 3.597 0 00-1.306-.95 4.2 4.2 0 00-1.665-.324 4.28 4.28 0 00-1.693.335 3.67 3.67 0 00-1.328.96c-.399.453-.679.992-.878 1.56-.238.683-.325 1.412-.325 2.132 0 .722.085 1.453.316 2.14.192.57.472 1.11.871 1.564.368.42.807.745 1.317.971.533.237 1.1.34 1.682.34zm29.177-5.585h3.048c.678 0 1.648-.078 2.186-.542.471-.407.608-1.004.608-1.605 0-.338-.044-.726-.216-1.024a1.588 1.588 0 00-.577-.59 2.567 2.567 0 00-.9-.302 7.55 7.55 0 00-1.162-.086h-2.987v4.149zm18.127 1.442L342.6 79.54l-1.758 4.854h3.604z"/></svg>
